X:186
T:score264
L:1/16
Q:1/4=96
M:2/4
I:linebreak $
K:Gb
 B2c=c d2ed | G2A=A B2_cB | E2=EF G2FG | A2BA A2Bc |$ B2c=c d2ed | G2A=A B2_cB | E2=EF G2FG | %7
 A2BA G2 z2 |] %8
